dist/flags/l/612.svg

<svg width="32" height="24" viewBox="0 0 32 24" fill="none" xmlns="http://www.w3.org/2000/svg">
<mask id="mask0" mask-type="alpha" maskUnits="userSpaceOnUse" x="0" y="0" width="32" height="24">
<rect width="32" height="24" fill="white"/>
</mask>
<g mask="url(#mask0)">
<path fill-rule="evenodd" clip-rule="evenodd" d="M0 0V24H32V0H0Z" fill="#2E42A5"/>
<mask id="mask1" mask-type="alpha" maskUnits="userSpaceOnUse" x="0" y="0" width="32" height="24">
<path fill-rule="evenodd" clip-rule="evenodd" d="M0 0V24H32V0H0Z" fill="white"/>
</mask>
<g mask="url(#mask1)">
<rect width="18" height="14" fill="#2B409A"/>
<mask id="mask2" mask-type="alpha" maskUnits="userSpaceOnUse" x="0" y="0" width="18" height="14">
<rect width="18" height="14" fill="white"/>
</mask>
<g mask="url(#mask2)">
<path d="M-2.00427 12.9999L1.95668 14.7371L18.0899 1.88878L20.1792 -0.692749L15.9435 -1.27337L9.36317 4.26332L4.06667 7.99375L-2.00427 12.9999Z" fill="#F7FCFF"/>
<path d="M-1.46204 14.217L0.555885 15.2251L19.4289 -0.932617H16.5955L-1.46204 14.217Z" fill="#F50100"/>
<path d="M20.0043 12.9999L16.0433 14.7371L-0.0898743 1.88878L-2.17919 -0.692749L2.05648 -1.27337L8.63683 4.26332L13.9333 7.99375L20.0043 12.9999Z" fill="#F7FCFF"/>
<path d="M19.8691 13.8732L17.8512 14.8813L9.81489 7.96339L7.43229 7.19046L-2.3802 -0.684069H0.453194L10.2602 7.00356L12.8651 7.93038L19.8691 13.8732Z" fill="#F50100"/>
<mask id="path-11-outside-1" maskUnits="userSpaceOnUse" x="-2" y="-2" width="22" height="18" fill="black">
<rect fill="white" x="-2" y="-2" width="22" height="18"/>
<path fill-rule="evenodd" clip-rule="evenodd" d="M9.98451 0H7.98451V6H0V8H7.98451V14H9.98451V8H18V6H9.98451V0Z"/>
</mask>
<path fill-rule="evenodd" clip-rule="evenodd" d="M9.98451 0H7.98451V6H0V8H7.98451V14H9.98451V8H18V6H9.98451V0Z" fill="#F50100"/>
<path d="M7.98451 0V-1.5H6.48451V0H7.98451ZM9.98451 0H11.4845V-1.5H9.98451V0ZM7.98451 6V7.5H9.48451V6H7.98451ZM0 6V4.5H-1.5V6H0ZM0 8H-1.5V9.5H0V8ZM7.98451 8H9.48451V6.5H7.98451V8ZM7.98451 14H6.48451V15.5H7.98451V14ZM9.98451 14V15.5H11.4845V14H9.98451ZM9.98451 8V6.5H8.48451V8H9.98451ZM18 8V9.5H19.5V8H18ZM18 6H19.5V4.5H18V6ZM9.98451 6H8.48451V7.5H9.98451V6ZM7.98451 1.5H9.98451V-1.5H7.98451V1.5ZM9.48451 6V0H6.48451V6H9.48451ZM0 7.5H7.98451V4.5H0V7.5ZM1.5 8V6H-1.5V8H1.5ZM7.98451 6.5H0V9.5H7.98451V6.5ZM9.48451 14V8H6.48451V14H9.48451ZM9.98451 12.5H7.98451V15.5H9.98451V12.5ZM8.48451 8V14H11.4845V8H8.48451ZM18 6.5H9.98451V9.5H18V6.5ZM16.5 6V8H19.5V6H16.5ZM9.98451 7.5H18V4.5H9.98451V7.5ZM8.48451 0V6H11.4845V0H8.48451Z" fill="#F7FCFF" mask="url(#path-11-outside-1)"/>
</g>
<path fill-rule="evenodd" clip-rule="evenodd" d="M20.6161 10.7568C20.6161 10.7568 20.7148 11.8515 20.4983 12.4718C20.2819 13.0921 20.1718 13.4521 20.1718 13.0556C20.1718 12.6592 20.0198 12.3449 19.8975 12.3449C19.7753 12.3449 19.8718 12.7381 19.7489 12.7381C19.626 12.7381 19.2027 12.8057 19.2027 12.5753C19.2027 12.3449 19.147 13.1934 19.4217 13.2693C19.6964 13.3452 19.2883 13.5806 19.1061 13.5077C19.1061 13.5077 19.8555 13.7513 20.1494 13.9589C20.1494 13.9589 21.0304 15.0587 21.8545 14.9245C21.8545 14.9245 20.7324 14.5372 20.9301 13.7971C21.1278 13.0571 21.8545 12.95 21.8545 12.95C21.8545 12.95 22.1955 13.0641 22.1852 13.3628C22.175 13.6615 22.4346 13.2693 22.4346 13.2693C22.4346 13.2693 22.4764 12.8918 22.4303 12.7997C22.3842 12.7076 23.2114 12.5293 23.2635 12.1407C23.2635 12.1407 22.4184 12.1793 22.3604 12.0795C22.3024 11.9796 22.6219 11.8231 22.522 11.6284C22.422 11.4338 20.9301 12.7381 20.9301 12.7381C20.9301 12.7381 21.4453 11.8503 21.4453 11.3736C21.4453 10.8968 21.3144 10.571 20.9301 10.571C20.5458 10.571 20.6161 10.7568 20.6161 10.7568Z" fill="#5EAA22"/>
<path fill-rule="evenodd" clip-rule="evenodd" d="M28.3835 11.017C28.3825 11.0186 28.3846 11.02 28.386 11.0187C28.4415 10.964 28.7838 10.6492 29.0707 10.8982C29.3839 11.1701 28.9128 11.4351 28.9128 11.4351C28.9128 11.4351 29.133 11.6486 29.3848 11.6486C29.6366 11.6486 29.6984 11.4351 29.6984 11.4351C29.6984 11.4351 29.7176 11.9103 30.5389 12.0903C30.5389 12.0903 30.8319 11.6696 30.5389 11.4393C30.5389 11.4393 30.885 11.3675 30.8599 11.0871C30.8599 11.0871 30.5753 11.1841 30.3724 10.9613C30.1695 10.7385 29.774 10.6357 29.4864 10.6871C28.7566 10.4239 28.428 10.9395 28.3835 11.017Z" fill="#5EAA22"/>
<path fill-rule="evenodd" clip-rule="evenodd" d="M23.4037 13.415C23.4037 13.415 24.2529 15.0124 23.7221 15.3434C23.1913 15.6744 26.2459 15.4389 26.5337 15.3434C26.8215 15.2478 26.4756 14.7442 26.1564 14.6044C25.8372 14.4646 24.525 13.9994 24.176 13.6485C23.8269 13.2977 24.0401 13.1732 24.3212 12.8269C24.6024 12.4805 25.6432 12.342 25.6432 12.0183C25.6432 11.6946 26.3034 10.3596 26.7648 10.2588C27.2262 10.1581 26.977 9.99948 26.8709 9.99948C26.7648 9.99948 26.1269 10.657 25.885 10.5384C25.6432 10.4197 25.6136 10.4281 25.885 10.1413C26.1564 9.85459 26.3607 9.52455 26.0019 9.76202C25.6432 9.99948 25.0517 10.3753 24.7673 10.3753C24.483 10.3753 23.4708 10.2471 23.5965 10.5384C23.7221 10.8296 23.7754 11.3352 24.3212 11.6768C24.867 12.0183 24.6298 12.2683 24.176 12.5974C23.7221 12.9265 23.4037 13.415 23.4037 13.415Z" fill="#96877D"/>
<path d="M29.0386 11.3025L27.4204 14.5478C27.4204 14.5478 27.3733 15.4646 28.5301 14.8537C29.687 14.2428 29.6414 13.8096 29.975 13.8096C30.3085 13.8096 30.4145 13.6244 30.4145 13.6244L30.1923 13.4496C30.1923 13.4496 30.1666 13.131 30.3073 13.0594C30.3073 13.0594 30.0312 12.9073 29.9918 13.0343C29.9523 13.1613 29.7577 12.7687 29.8678 12.7687C29.8678 12.7687 29.6244 13.1628 29.573 13.3166C29.573 13.3166 29.2208 13.1734 29.2377 12.5099C29.2545 11.8464 29.0386 11.3025 29.0386 11.3025Z" fill="#FFD018"/>
<path d="M21.3364 10.7888C21.3364 10.7888 20.5124 10.9806 20.6013 11.1802C20.6901 11.3798 20.8211 11.1748 20.4176 11.4154C20.4176 11.4154 19.7089 11.9634 19.5545 11.904C19.4 11.8446 19.6639 12.042 19.6639 11.4154C19.6639 10.7888 19.2523 11.2988 19.6639 10.8805C20.0754 10.4622 20.2197 10.7888 20.4176 10.5481C20.6156 10.3074 20.4376 10.4354 20.9745 10.4354C21.5114 10.4354 21.3364 10.7888 21.3364 10.7888Z" fill="#FFD018"/>
<path d="M23.8506 14.0139C23.8506 14.0139 21.5436 15.8269 21.0825 15.9623C20.6214 16.0976 22.0308 15.925 22.3752 15.6857C22.7195 15.4463 23.8506 14.0139 23.8506 14.0139Z" fill="#FFD018"/>
<path fill-rule="evenodd" clip-rule="evenodd" d="M28.4246 17.1945C28.4246 17.1945 28.646 18.623 28.0679 18.4824C27.4899 18.3418 27.2499 18.2691 27.2499 18.2691C27.2499 18.2691 27.462 18.9344 27.765 18.9344C27.765 18.9344 28.2812 19.9404 28.0826 20.2581C28.0826 20.2581 28.9718 19.5367 28.828 18.9631C28.6843 18.3895 29.0579 19.0575 29.0579 19.0575C29.0579 19.0575 29.3851 19.2155 29.6217 19.0391C29.8582 18.8626 29.6187 18.941 29.3821 18.6051C29.1456 18.2691 29.204 17.3256 28.4845 16.8366C27.765 16.3475 27.5975 16.3632 27.5975 16.3632C27.5975 16.3632 27.0676 15.4968 27.3851 15.5541C27.3851 15.5541 29.6602 16.334 29.7193 16.5339C29.7784 16.7338 30.3818 16.6972 30.0801 16.1256C29.7784 15.5541 28.1521 15.2096 27.9585 15.0485C27.765 14.8873 27.9451 14.2759 27.5975 14.1428C27.2499 14.0096 26.3003 13.0646 26.3009 12.6092C26.3015 12.1538 25.8546 11.9394 25.4661 11.9394C25.0776 11.9394 24.346 11.8271 24.037 11.8271C23.7279 11.8271 23.4398 12.3442 23.7384 12.3442C24.037 12.3442 23.7819 13.3121 23.282 13.5237C22.782 13.7352 22.3955 14.0393 21.8246 14.0393C21.2537 14.0393 22.6328 14.5315 22.8526 14.3371C23.0724 14.1428 23.0003 13.8531 23.7384 13.5237C24.4765 13.1942 25.181 12.9992 25.0918 13.2614C25.0026 13.5237 25.2302 13.9623 25.5779 13.8036C25.9257 13.6448 26.0372 13.2438 26.0372 13.5237C26.0372 13.8036 26.5704 15.2411 26.9777 15.8021C27.3851 16.3632 28.4246 17.1945 28.4246 17.1945Z" fill="#5EAA22"/>
<path d="M23.5712 11.9456C23.5712 11.9456 23.3007 12.3765 23.5712 12.3765C23.8417 12.3765 24.2767 12.3765 24.0117 12.161C23.7466 11.9456 23.5712 11.9456 23.5712 11.9456Z" fill="#FFD018"/>
<path d="M24.475 11.935C24.475 11.935 24.4763 12.2215 24.6637 12.2215C24.8512 12.2215 25.018 12.508 25.018 12.2215C25.018 11.935 25.2786 12.03 24.8768 11.935C24.475 11.8399 24.475 11.935 24.475 11.935Z" fill="#FFD018"/>
<path d="M25.6296 12.0007C25.6296 12.0007 25.4489 12.1368 25.5392 12.3795C25.6296 12.6222 25.834 13.1026 25.5392 13.1026C25.2445 13.1026 25.0019 13.2757 25.2322 13.2757C25.4625 13.2757 25.8721 13.4489 25.8721 13.2757C25.8721 13.1026 26.0388 13.5613 26.0388 13.2757C26.0388 12.9902 26.0388 12.8537 26.0388 12.6863C26.0388 12.5188 26.2055 12.4707 26.0388 12.2357C25.8721 12.0007 25.6296 12.0007 25.6296 12.0007Z" fill="#FFD018"/>
<path d="M26.0471 13.6716C26.0471 13.6716 26.4238 14.8571 26.6286 15.0099C26.8334 15.1627 26.9253 16.4501 27.0152 16.5901C27.1051 16.7301 28.3299 17.4365 28.3299 17.8157C28.3299 18.1948 28.707 17.5243 28.5184 17.1489C28.3299 16.7735 27.7362 15.9742 27.3092 15.7999C26.8822 15.6256 26.9363 15.2035 26.8466 14.9068C26.7568 14.6102 27.3778 15.1465 26.8466 14.4736C26.3153 13.8008 26.3294 14.1618 26.479 14.1618C26.6286 14.1618 26.7782 14.0823 26.6286 13.9778C26.479 13.8732 26.0471 13.6716 26.0471 13.6716Z" fill="#FFD018"/>
<path d="M22.0541 16.1165C22.0541 16.1165 20.8307 18.2771 20.6124 18.3887C20.3941 18.5003 20.2313 18.523 20.1198 18.3887C20.0082 18.2544 19.9967 18.7492 20.1198 18.8846C20.2428 19.0201 20.6124 19.0201 20.8175 18.7795C20.8175 18.7795 20.8499 19.3874 21.1695 19.8456C21.489 20.3039 21.6221 20.1773 21.6221 20.4365C21.6221 20.6956 21.6976 21.0387 21.7951 21.0387C21.8927 21.0387 21.9682 21.8544 21.7951 21.8544C21.6221 21.8544 22.1961 21.9213 22.4464 21.7173C22.6966 21.5133 22.8036 21.3579 22.7501 21.3579C22.6966 21.3579 22.0541 21.0197 22.0541 20.7805C22.0541 20.5412 21.6221 20.3538 21.6221 19.9986C21.6221 19.6434 21.3976 19.221 21.3976 19.0528C21.3976 18.8846 21.5896 19.1177 21.7951 18.9585C22.0007 18.7992 22.0541 18.3887 22.0541 18.3887C22.0541 18.3887 21.7303 18.6059 21.6221 18.4973C21.5138 18.3887 21.1732 18.1743 21.3976 17.8065C21.6221 17.4387 22.0541 16.1165 22.0541 16.1165Z" fill="#FFD018"/>
<path fill-rule="evenodd" clip-rule="evenodd" d="M24.1743 9.30225C24.1743 9.30225 23.7362 9.49709 23.8822 9.7866C24.0282 10.0761 24.0807 10.2043 24.1743 10.1402C24.2678 10.0761 24.9241 9.95492 24.7771 9.62858C24.6301 9.30225 24.3221 9.30225 24.3221 9.30225H24.1743Z" fill="#5EAA22"/>
<path d="M25.694 9.1456C25.694 9.1456 25.1154 8.88956 25.3082 9.1456C25.5011 9.40164 25.7478 9.53662 25.9254 9.53662C26.1029 9.53662 26.4717 9.48369 26.2873 9.3804C26.1029 9.2771 25.694 9.1456 25.694 9.1456Z" fill="#FFD018"/>
<path fill-rule="evenodd" clip-rule="evenodd" d="M19.9814 15.8004C19.9843 15.7848 19.9657 15.7739 19.9542 15.7849C19.8334 15.9002 19.4727 16.2831 19.6261 16.6162C19.809 17.0137 19.992 17.1517 19.992 17.1517C19.992 17.1517 20.1034 17.7603 20.3338 17.9259C20.3338 17.9259 20.6431 17.9101 20.6584 17.4364C20.6584 17.4364 21.1838 17.2823 21.3382 17.6103C21.3382 17.6103 21.2363 17.6472 21.2363 17.9259C21.2363 18.2047 21.474 18.5066 21.474 18.5066C21.474 18.5066 21.5829 17.5453 22.072 16.9254C22.5612 16.3056 22.7012 16.1833 22.7012 16.1833V15.4858C22.7012 15.4858 21.6891 16.3105 21.474 16.9962C21.474 16.9962 20.9643 17.0132 20.7572 16.9254C20.5502 16.8377 21.0159 16.6936 20.7572 16.3816C20.4986 16.0695 20.6171 16.821 20.3338 16.6162C19.8906 16.493 19.9507 15.9662 19.9814 15.8004Z" fill="#5EAA22"/>
<path fill-rule="evenodd" clip-rule="evenodd" d="M22.1868 15.1946L27.3714 15.1946V18.3622C27.3714 18.3622 26.9488 20.9505 24.6909 22.2256C24.6909 22.2256 22.5038 20.9329 22.1868 18.3622V15.1946Z" fill="#5EAA22"/>
<mask id="mask3" mask-type="alpha" maskUnits="userSpaceOnUse" x="22" y="15" width="6" height="8">
<path fill-rule="evenodd" clip-rule="evenodd" d="M22.1868 15.1946L27.3714 15.1946V18.3622C27.3714 18.3622 26.9488 20.9505 24.6909 22.2256C24.6909 22.2256 22.5038 20.9329 22.1868 18.3622V15.1946Z" fill="white"/>
</mask>
<g mask="url(#mask3)">
<path fill-rule="evenodd" clip-rule="evenodd" d="M24.6517 15.0234L22.3865 19.7241L25.4584 16.9345L27.5727 20.4388V15.0234L25.4584 16.7566L24.6517 15.0234Z" fill="#58A5FF"/>
<path d="M24.5802 18.4134C24.5802 18.3201 24.6559 18.2444 24.7492 18.2444C24.8426 18.2444 24.9182 18.3201 24.9182 18.4134V21.4317C24.9182 21.5251 24.8426 21.6008 24.7492 21.6008C24.6559 21.6008 24.5802 21.5251 24.5802 21.4317L24.5802 18.4134Z" fill="#FFD018"/>
<path d="M23.9925 19.1578C23.9008 19.1578 23.8264 19.0834 23.8264 18.9917C23.8264 18.9 23.9008 18.8257 23.9925 18.8257H25.5197C25.6114 18.8257 25.6857 18.9 25.6857 18.9917C25.6857 19.0834 25.6114 19.1578 25.5197 19.1578H23.9925Z" fill="#FFD018"/>
<path d="M24.8159 21.4886L24.685 21.5949C24.4922 21.3607 24.3164 21.248 24.1611 21.248C23.9323 21.248 23.7462 21.0572 23.5945 20.6951L23.7505 20.6306C23.8789 20.9369 24.0185 21.0801 24.1611 21.0801C24.377 21.0801 24.5942 21.2192 24.8159 21.4886Z" fill="#FFD018"/>
<path fill-rule="evenodd" clip-rule="evenodd" d="M23.4434 20.119C23.4424 20.118 23.4407 20.1187 23.4407 20.1201V20.9362C23.4407 20.9373 23.4418 20.9381 23.4429 20.9377L24.0567 20.685C24.0578 20.6845 24.058 20.6831 24.0571 20.6823L23.4434 20.119Z" fill="#FFD018"/>
<path d="M24.677 21.4886L24.8079 21.5949C25.0007 21.3607 25.1765 21.248 25.3319 21.248C25.5607 21.248 25.7467 21.0572 25.8984 20.6951L25.7424 20.6306C25.6141 20.9369 25.4744 21.0801 25.3319 21.0801C25.1159 21.0801 24.8988 21.2192 24.677 21.4886Z" fill="#FFD018"/>
<path fill-rule="evenodd" clip-rule="evenodd" d="M26.0495 20.119C26.0506 20.118 26.0522 20.1187 26.0522 20.1201V20.9362C26.0522 20.9373 26.0511 20.9381 26.05 20.9377L25.4363 20.685C25.4352 20.6845 25.4349 20.6831 25.4358 20.6823L26.0495 20.119Z" fill="#FFD018"/>
<rect x="24.4084" y="17.0583" width="0.676056" height="1.00733" fill="white"/>
</g>
</g>
</g>
</svg>

<svg width="32" height="24" fill="none" xmlns="http://www.w3.org/2000/svg">
  <mask id="a" maskUnits="userSpaceOnUse" x="0" y="0" width="32" height="24">
    <path fill="#fff" d="M0 0h32v24H0z"/>
  </mask>
  <g mask="url(#a)">
    <path fill-rule="evenodd" clip-rule="evenodd" d="M0 0v24h32V0H0z" fill="#2E42A5"/>
    <mask id="b" maskUnits="userSpaceOnUse" x="0" y="0" width="32" height="24">
      <path fill-rule="evenodd" clip-rule="evenodd" d="M0 0v24h32V0H0z" fill="#fff"/>
    </mask>
    <g mask="url(#b)">
      <path fill="#2B409A" d="M0 0h18v14H0z"/>
      <mask id="c" maskUnits="userSpaceOnUse" x="0" y="0" width="18" height="14">
        <path fill="#fff" d="M0 0h18v14H0z"/>
      </mask>
      <g mask="url(#c)">
        <path d="M-2.004 13l3.96 1.737L18.09 1.889l2.09-2.582-4.236-.58-6.58 5.536-5.297 3.73L-2.004 13z" fill="#F7FCFF"/>
        <path d="M-1.462 14.217l2.018 1.008L19.429-.933h-2.833l-18.058 15.15z" fill="#F50100"/>
        <path d="M20.004 13l-3.96 1.737L-.09 1.889-2.18-.693l4.236-.58 6.58 5.536 5.297 3.73L20.004 13z" fill="#F7FCFF"/>
        <path d="M19.87 13.873l-2.019 1.009-8.036-6.918-2.383-.773L-2.38-.684H.453l9.807 7.688 2.605.927 7.004 5.942z" fill="#F50100"/>
        <mask id="d" maskUnits="userSpaceOnUse" x="-2" y="-2" width="22" height="18" fill="#000">
          <path fill="#fff" d="M-2-2h22v18H-2z"/>
          <path fill-rule="evenodd" clip-rule="evenodd" d="M9.985 0h-2v6H0v2h7.985v6h2V8H18V6H9.985V0z"/>
        </mask>
        <path fill-rule="evenodd" clip-rule="evenodd" d="M9.985 0h-2v6H0v2h7.985v6h2V8H18V6H9.985V0z" fill="#F50100"/>
        <path d="M7.985 0v-1.5h-1.5V0h1.5zm2 0h1.5v-1.5h-1.5V0zm-2 6v1.5h1.5V6h-1.5zM0 6V4.5h-1.5V6H0zm0 2h-1.5v1.5H0V8zm7.985 0h1.5V6.5h-1.5V8zm0 6h-1.5v1.5h1.5V14zm2 0v1.5h1.5V14h-1.5zm0-6V6.5h-1.5V8h1.5zM18 8v1.5h1.5V8H18zm0-2h1.5V4.5H18V6zM9.985 6h-1.5v1.5h1.5V6zm-2-4.5h2v-3h-2v3zm1.5 4.5V0h-3v6h3zM0 7.5h7.985v-3H0v3zm1.5.5V6h-3v2h3zm6.485-1.5H0v3h7.985v-3zm1.5 7.5V8h-3v6h3zm.5-1.5h-2v3h2v-3zM8.485 8v6h3V8h-3zM18 6.5H9.985v3H18v-3zM16.5 6v2h3V6h-3zM9.985 7.5H18v-3H9.985v3zM8.485 0v6h3V0h-3z" fill="#F7FCFF" mask="url(#d)"/>
      </g>
      <path fill-rule="evenodd" clip-rule="evenodd" d="M20.616 10.757s.099 1.095-.118 1.715c-.216.62-.326.98-.326.584 0-.397-.152-.711-.274-.711-.123 0-.026.393-.15.393-.122 0-.545.068-.545-.163 0-.23-.056.619.219.694.274.076-.134.312-.316.239 0 0 .75.243 1.043.45 0 0 .881 1.1 1.706.967 0 0-1.123-.388-.925-1.128.198-.74.925-.847.925-.847s.34.114.33.413c-.01.299.25-.094.25-.094s.041-.377-.005-.47c-.046-.091.781-.27.834-.658 0 0-.846.038-.904-.061-.058-.1.262-.257.162-.451-.1-.195-1.592 1.11-1.592 1.11s.515-.889.515-1.365c0-.477-.13-.803-.515-.803-.384 0-.314.186-.314.186zm7.768.26c-.002.002 0 .003.002.002.056-.055.398-.37.685-.12.313.271-.158.536-.158.536s.22.214.472.214a.318.318 0 00.313-.214s.02.475.84.655c0 0 .294-.42 0-.65 0 0 .347-.072.322-.353 0 0-.285.097-.488-.126s-.598-.325-.886-.274c-.73-.263-1.058.253-1.102.33z" fill="#5EAA22"/>
      <path fill-rule="evenodd" clip-rule="evenodd" d="M23.404 13.415s.849 1.597.318 1.928c-.53.331 2.524.096 2.812 0 .288-.095-.058-.599-.378-.739-.319-.14-1.631-.605-1.98-.955-.35-.351-.136-.476.145-.822.281-.347 1.322-.485 1.322-.809 0-.323.66-1.659 1.122-1.76.461-.1.212-.259.106-.259s-.744.658-.986.54c-.242-.12-.271-.11 0-.398.271-.286.476-.616.117-.379s-.95.613-1.235.613c-.284 0-1.296-.128-1.17.163.125.292.178.797.724 1.139.546.341.309.591-.145.92-.454.33-.772.818-.772.818z" fill="#96877D"/>
      <path d="M29.039 11.303l-1.619 3.245s-.047.917 1.11.306 1.111-1.044 1.445-1.044c.333 0 .44-.186.44-.186l-.223-.174s-.025-.319.115-.39c0 0-.276-.152-.315-.026-.04.127-.234-.265-.124-.265 0 0-.244.394-.295.548 0 0-.352-.143-.335-.807a3.384 3.384 0 00-.2-1.207zm-7.703-.514s-.824.192-.735.391c.09.2.22-.005-.183.235 0 0-.71.548-.863.489-.155-.06.109.138.109-.489 0-.626-.412-.116 0-.534.411-.419.556-.092.754-.333.198-.24.02-.113.556-.113.537 0 .362.354.362.354zm2.514 3.225s-2.306 1.813-2.768 1.948c-.46.136.949-.037 1.293-.276.345-.24 1.476-1.672 1.476-1.672z" fill="#FFD018"/>
      <path fill-rule="evenodd" clip-rule="evenodd" d="M28.425 17.195s.221 1.428-.357 1.287c-.578-.14-.818-.213-.818-.213s.212.666.515.666c0 0 .516 1.006.318 1.323 0 0 .889-.721.745-1.295-.144-.573.23.095.23.095s.327.158.564-.019c.236-.176-.003-.098-.24-.434-.236-.336-.178-1.28-.898-1.768-.719-.49-.887-.474-.887-.474s-.53-.866-.212-.809c0 0 2.275.78 2.334.98.06.2.663.163.361-.408-.302-.572-1.928-.916-2.121-1.078-.194-.16-.014-.772-.361-.905-.348-.133-1.298-1.078-1.297-1.534 0-.455-.446-.67-.835-.67-.388 0-1.12-.112-1.429-.112-.31 0-.597.517-.299.517.299 0 .044.968-.456 1.18-.5.211-.887.515-1.457.515-.571 0 .808.493 1.028.298.22-.194.147-.484.885-.813.739-.33 1.443-.525 1.354-.262-.09.262.138.7.486.542.348-.16.46-.56.46-.28s.532 1.717.94 2.278c.407.561 1.447 1.393 1.447 1.393z" fill="#5EAA22"/>
      <path d="M23.571 11.945s-.27.431 0 .431.706 0 .44-.215c-.264-.216-.44-.216-.44-.216zm.904-.01s.001.287.189.287c.187 0 .354.286.354 0 0-.287.26-.192-.141-.287-.402-.095-.402 0-.402 0zM25.63 12s-.181.137-.09.38c.09.242.294.723 0 .723-.296 0-.538.173-.308.173.23 0 .64.173.64 0s.167.285.167 0v-.59c0-.167.166-.215 0-.45-.167-.235-.41-.235-.41-.235zm.417 1.672s.377 1.185.582 1.338c.204.153.296 1.44.386 1.58.09.14 1.315.847 1.315 1.226s.377-.292.188-.667c-.188-.375-.782-1.175-1.209-1.349-.427-.174-.373-.596-.462-.893-.09-.297.53.24 0-.433-.532-.673-.518-.312-.368-.312.15 0 .3-.08.15-.184-.15-.105-.582-.306-.582-.306zm-3.993 2.444s-1.223 2.161-1.442 2.273c-.218.111-.38.134-.492 0-.112-.135-.123.36 0 .496.123.135.492.135.697-.106 0 0 .033.608.352 1.067.32.458.453.331.453.59 0 .26.076.603.173.603.098 0 .173.815 0 .815s.401.067.651-.137c.25-.204.358-.36.304-.36-.053 0-.696-.337-.696-.577 0-.239-.432-.426-.432-.782 0-.355-.224-.777-.224-.945 0-.168.192.065.397-.095.206-.159.26-.57.26-.57s-.325.218-.433.11c-.108-.11-.449-.324-.224-.692.224-.367.656-1.69.656-1.69z" fill="#FFD018"/>
      <path fill-rule="evenodd" clip-rule="evenodd" d="M24.174 9.302s-.438.195-.292.485c.146.29.199.417.292.353.094-.064.75-.185.603-.511-.147-.327-.455-.327-.455-.327h-.148z" fill="#5EAA22"/>
      <path d="M25.694 9.146s-.579-.256-.386 0c.193.256.44.39.617.39.178 0 .547-.052.362-.156-.184-.103-.593-.234-.593-.234z" fill="#FFD018"/>
      <path fill-rule="evenodd" clip-rule="evenodd" d="M19.981 15.8c.003-.015-.015-.026-.027-.015-.12.115-.481.498-.328.831.183.398.366.536.366.536s.111.608.342.774c0 0 .31-.016.324-.49 0 0 .526-.154.68.174 0 0-.102.037-.102.316s.238.58.238.58.109-.96.598-1.58c.49-.62.63-.743.63-.743v-.697s-1.013.825-1.228 1.51c0 0-.51.017-.717-.07-.207-.088.259-.232 0-.544-.258-.312-.14.44-.423.234-.443-.123-.383-.65-.353-.815z" fill="#5EAA22"/>
      <path fill-rule="evenodd" clip-rule="evenodd" d="M22.187 15.195h5.184v3.167s-.422 2.589-2.68 3.864c0 0-2.187-1.293-2.504-3.864v-3.167z" fill="#5EAA22"/>
      <mask id="e" maskUnits="userSpaceOnUse" x="22" y="15" width="6" height="8">
        <path fill-rule="evenodd" clip-rule="evenodd" d="M22.187 15.195h5.184v3.167s-.422 2.589-2.68 3.864c0 0-2.187-1.293-2.504-3.864v-3.167z" fill="#fff"/>
      </mask>
      <g mask="url(#e)">
        <path fill-rule="evenodd" clip-rule="evenodd" d="M24.652 15.024l-2.265 4.7 3.071-2.79 2.115 3.505v-5.415l-2.115 1.733-.806-1.733z" fill="#58A5FF"/>
        <path d="M24.58 18.414a.169.169 0 01.338 0v3.018a.169.169 0 11-.338 0v-3.018z" fill="#FFD018"/>
        <path d="M23.992 19.158a.166.166 0 010-.332h1.528a.166.166 0 110 .332h-1.527zm.824 2.331l-.131.106c-.193-.234-.369-.347-.524-.347-.229 0-.415-.19-.567-.553l.156-.064c.129.306.268.45.411.45.216 0 .433.138.655.408z" fill="#FFD018"/>
        <path fill-rule="evenodd" clip-rule="evenodd" d="M23.443 20.12c0-.002-.002-.001-.002 0v.816c0 .002 0 .002.002.002l.614-.253a.002.002 0 000-.002l-.614-.564z" fill="#FFD018"/>
        <path d="M24.677 21.489l.13.106c.194-.234.37-.347.525-.347.229 0 .415-.19.566-.553l-.156-.064c-.128.306-.268.45-.41.45-.216 0-.433.138-.655.408z" fill="#FFD018"/>
        <path fill-rule="evenodd" clip-rule="evenodd" d="M26.05 20.12a.002.002 0 01.002 0v.816c0 .002 0 .002-.002.002l-.614-.253v-.002l.613-.564z" fill="#FFD018"/>
        <path fill="#fff" d="M24.408 17.059h.676v1.007h-.676z"/>
      </g>
    </g>
  </g>
</svg>
